rospo-icon-theme-classic-common/64x64/apps/com.github.spheras.desktopfolder.svg

<svg height="64" width="64" xmlns="http://www.w3.org/2000/svg"><path d="m16.000323 51.376036v1.999984c0 1.453989 1.190591 2.62398 2.66798 2.62398h26.663794c1.477989 0 2.66798-1.169991 2.66798-2.62398v-1.999984c0 1.453988-1.189991 2.623979-2.66798 2.623979h-26.663794c-1.477389 0-2.66798-1.169991-2.66798-2.623979z" opacity=".2"/><rect fill="#8e8e8e" height="32" rx="2.626" ry="2.666" transform="matrix(0 -1 -1 0 0 0)" width="42" x="-55" y="-48"/><path d="m6.0004002 45.500081v1.999984c0 1.38399 1.1611911 2.499981 2.60158 2.499981h46.7956398c1.439989 0 2.60198-1.115991 2.60198-2.499981v-1.999984c0 1.383989-1.161991 2.499981-2.60198 2.499981h-46.7956398c-1.4407889 0-2.60198-1.115992-2.60198-2.499981z" opacity=".2"/><rect fill="#3f3f3f" height="52" rx="2.5" ry="2.6" transform="matrix(0 -1 -1 0 0 0)" width="40" x="-49" y="-58"/><path d="m8.6015625 9c-1.4403889 0-2.6015625 1.115011-2.6015625 2.5v1c0-1.384989 1.1611736-2.5 2.6015625-2.5h46.7968755c1.439988 0 2.601562 1.115011 2.601562 2.5v-1c0-1.384989-1.161574-2.5-2.601562-2.5z" fill="#fff" opacity=".1"/><path d="m-46-54h32v44h-32z" opacity=".2" transform="matrix(0 -1 -1 0 0 0)"/><path d="m-45-54h32v44h-32z" fill="#2584d4" transform="matrix(0 -1 -1 0 0 0)"/><rect height="24" opacity=".2" rx="2.667" ry="2.4" width="16" x="14" y="18"/><rect fill="#5ebae6" height="24" rx="2.667" ry="2.4" width="16" x="14" y="17"/><rect height="10" opacity=".2" rx="2.667" ry="2.5" width="16" x="34" y="18"/><rect fill="#5ebae6" height="10" rx="2.667" ry="2.5" width="16" x="34" y="17"/><rect height="10" opacity=".2" rx="2.667" ry="2.5" width="16" x="34" y="32"/><rect fill="#5ebae6" height="10" rx="2.667" ry="2.5" width="16" x="34" y="31"/><g fill="#fff"><path d="m16.667969 17c-1.477334 0-2.667969 1.068836-2.667969 2.398438v1c0-1.329602 1.190635-2.398438 2.667969-2.398438h10.664062c1.477332 0 2.667969 1.068836 2.667969 2.398438v-1c0-1.329602-1.190637-2.398438-2.667969-2.398438z" opacity=".1"/><path d="m36.667969 17c-1.477332 0-2.667969 1.115-2.667969 2.5v1c0-1.385 1.190637-2.5 2.667969-2.5h10.664062c1.477332 0 2.667969 1.115 2.667969 2.5v-1c0-1.385-1.190637-2.5-2.667969-2.5z" opacity=".1"/><path d="m36.667969 31c-1.477332 0-2.667969 1.115-2.667969 2.5v1c0-1.385 1.190637-2.5 2.667969-2.5h10.664062c1.477332 0 2.667969 1.115 2.667969 2.5v-1c0-1.385-1.190637-2.5-2.667969-2.5z" opacity=".1"/></g></svg>

<svg xmlns="http://www.w3.org/2000/svg" width="64" height="64" version="1">
 <path style="opacity:0.2" d="m 16.000323,51.376036 0,1.999984 c 0,1.453989 1.190591,2.62398 2.66798,2.62398 l 26.663794,0 c 1.477989,0 2.66798,-1.169991 2.66798,-2.62398 l 0,-1.999984 c 0,1.453988 -1.189991,2.623979 -2.66798,2.623979 l -26.663794,0 c -1.477389,0 -2.66798,-1.169991 -2.66798,-2.623979 z"/>
 <rect style="fill:#8e8e8e" width="42" height="32" x="-55" y="-48" rx="2.626" ry="2.666" transform="matrix(0,-1,-1,0,0,0)"/>
 <path style="opacity:0.2" d="m 6.0004002,45.500081 0,1.999984 c 0,1.38399 1.1611911,2.499981 2.60158,2.499981 l 46.7956398,0 c 1.439989,0 2.60198,-1.115991 2.60198,-2.499981 l 0,-1.999984 c 0,1.383989 -1.161991,2.499981 -2.60198,2.499981 l -46.7956398,0 c -1.4407889,0 -2.60198,-1.115992 -2.60198,-2.499981 z"/>
 <rect style="fill:#3f3f3f" width="40" height="52" x="-49" y="-58" rx="2.5" ry="2.6" transform="matrix(0,-1,-1,0,0,0)"/>
 <path style="opacity:0.1;fill:#ffffff" d="M 8.6015625,9 C 7.1611736,9 6,10.115011 6,11.5 l 0,1 C 6,11.115011 7.1611736,10 8.6015625,10 L 55.398438,10 C 56.838426,10 58,11.115011 58,12.5 l 0,-1 C 58,10.115011 56.838426,9 55.398438,9 L 8.6015625,9 Z"/>
 <rect style="opacity:0.2" width="32" height="44" x="-46" y="-54" rx="0" ry="0" transform="matrix(0,-1,-1,0,0,0)"/>
 <rect style="fill:#2584d4" width="32" height="44" x="-45" y="-54" rx="0" ry="0" transform="matrix(0,-1,-1,0,0,0)"/>
 <rect style="opacity:0.2" width="16" height="24" x="14" y="18" rx="2.667" ry="2.4"/>
 <rect style="fill:#5ebae6" width="16" height="24" x="14" y="17" rx="2.667" ry="2.4"/>
 <rect style="opacity:0.2" width="16" height="10" x="34" y="18" rx="2.667" ry="2.5"/>
 <rect style="fill:#5ebae6" width="16" height="10" x="34" y="17" rx="2.667" ry="2.5"/>
 <rect style="opacity:0.2" width="16" height="10" x="34" y="32" rx="2.667" ry="2.5"/>
 <rect style="fill:#5ebae6" width="16" height="10" x="34" y="31" rx="2.667" ry="2.5"/>
 <path style="opacity:0.1;fill:#ffffff" d="M 16.667969,17 C 15.190635,17 14,18.068836 14,19.398438 l 0,1 C 14,19.068836 15.190635,18 16.667969,18 l 10.664062,0 C 28.809363,18 30,19.068836 30,20.398438 l 0,-1 C 30,18.068836 28.809363,17 27.332031,17 l -10.664062,0 z"/>
 <path style="opacity:0.1;fill:#ffffff" d="M 36.667969,17 C 35.190637,17 34,18.115 34,19.5 l 0,1 C 34,19.115 35.190637,18 36.667969,18 l 10.664062,0 C 48.809363,18 50,19.115 50,20.5 l 0,-1 C 50,18.115 48.809363,17 47.332031,17 l -10.664062,0 z"/>
 <path style="opacity:0.1;fill:#ffffff" d="M 36.667969,31 C 35.190637,31 34,32.115 34,33.5 l 0,1 C 34,33.115 35.190637,32 36.667969,32 l 10.664062,0 C 48.809363,32 50,33.115 50,34.5 l 0,-1 C 50,32.115 48.809363,31 47.332031,31 l -10.664062,0 z"/>
</svg>
